X:1
T:Heinrich Schütz 1585-1672
T:Psalm II
T:SWV 98
%%score [ 1 2 3 4 ]
L:1/8
Q:1/4=240
M:none
K:F
V:1 treble nm="Midi_57"
V:2 treble nm="Midi_58"
V:3 treble-8 nm="Midi_58"
V:4 bass nm="Midi_58"
V:1
"^Cornelius Becker\n(1561-1604""^1628 Version" G8 d4 d4 _e4 d4 B4 !courtesy!_e4 d4 | %1
w: ~Was ha- ben doch die Leut im Sinn,|
w: Daß sie auff- stehn mit Un- ge- stüm,|
 d4 _e4 d4 c4 B4 A8 G4 | B4 B4 B4 c6 B2 A4 G4 F4 :| A4 B4 c4 d4 g4 f4 e4 d4 | %4
w: was wol- len sie an- rich- ten,|Die Köng im Land sich leh- nen auff,|die Her- ren schlies- sen Rath zu Hauff,|
w: Ver- ge- bens ist ihr Dich- ten.|||
 d4 _e4 d4 B4 d4 c8 x16[Q:1/4=180] | x44 | %6
w: der Streit der will sich he-||
w: ||
V:2
 D8 G4 G4 G4 F4 _E4 G4 G4 | G4 G4 F4 F4 D4 D8 D4 | G4 G4 D4 F6 D2 C2 F4 E2 F4 :| %3
w: ~Was ha- ben doch die Leut im Sinn,|was wol- len sie an- rich- ten,|Die Köng im Land sich leh * nen auff,|
w: Daß sie auff- stehn mit Un- ge- stüm,|Ver- ge- bens ist ihr Dich- ten.||
 ^F4 G4 A4"^(  )" =F4 B4 A4 A4 A4 | G4 G4 F4 _E4 F4 F8 x16 | x44 | %6
w: die Her- ren schlies- sen Rath zu Hauff,|der Streit der will sich he-||
w: |||
V:3
 B8 B4 B4 c4 A4 G4 c4 =B4 | =B4 c4 A4 A4 G2 G4 ^FE !courtesy!^F4 G4 | d4 d4 B4 A6 F2 A4 c4 c4 :| %3
w: ~Was ha- ben doch die Leut im Sinn,|was wol- len sie an- rich- * * * ten,|Die Köng im Land sich leh- nen auff,|
w: Daß sie auff- stehn mit Un- ge- stüm,|Ver- ge- bens ist ihr Dich- * * * ten.||
 d4 d4 f4 d6 !courtesy!=e4 d4 ^c2 d4 | B4 c4 A4 G4 B2 B4 AG A4 x16 | x44 | %6
w: die Her- ren schlies- sen Rath zu Hauff,|der Streit der will sich he * * *||
w: |||
V:4
 G,8 x28 | G,4 G,4 C,4 D,4 _E,4 C,4 G,4 x4 | G,4 C,4 D,4 F,4 G,4 D,8 G,,4 :| %3
w: ~Was|ha- ben doch die Leut im Sinn,|was wol- len sie an- rich- ten,|
w: Daß|sie auff- stehn mit Un- ge- stüm,|Ver- ge- bens ist ihr Dich- ten.|
 G,4 G,4 G,4 F,6 B,,2 F,,4 C,4 F,4 | D,4 G,4 F,4 B,4 G,4 A,4 A,4 D,4 x12 | %5
w: Die Köng im Land sich leh- nen auff,|die Her- ren schlies- sen Rath zu Hauff,|
w: ||
 G,4 C,4 D,4 _E,4 B,,4 F,8 x16 | %6
w: der Streit der will sich he-|
w: |

